!! 00000] TT[WS
!!!OTL: Xiunshangge huixiaozi you haiburu me
!!!ARE: Asia, China, Shanxi Hequ
!! Ethnic Group: Han
!! WI, 37
!!!SCT: J0039
!!!YEM: Copyright 1995, estate of Helmut Schaffrath.
**kern
*ICvox
*Ivox
!! Mixed meters:  3/8; 4/8
*M4/8
*k[f#c#g#]
*A:
{8ccc#
8ccc#
8fff#
=1
8bb
8aa
8aa
8ff#
=2
8.ee
16ff#
8ccc#
8ee
=3
2cc#}
=4
*M3/8
{8ccc#
8ccc#
8fff#
=5
*M4/8
8bb
8aa
8aa
8ff#
=6
8.ee
16ff#
8ccc#
8ee
=7
2ff#}
==
!!!AGN: Shange, Shanqu. Aisu
!!!ONB: ESAC (Essen Associative Code) Database: CHINA
!!!AMT: irregular
!!!AIN: vox
!!!EED: Helmut Schaffrath
!!!EEV: 1.0
*-
